X:128
T: ADAM GING UND WOLLTE SICH ERQUICKEN
N: K2196
O: Europa, Mitteleuropa, Deutschland, Dresden
R: Kinder - Lied, Reigen, Tanz - Spiel, Brautwerbung
M: 3/4
L: 1/16
K: F
F2A2 | c3dc2d2c2d2 | c4F4
F2A2 | c3dc2d2c2d2 | c4F4
F2A2 | c4d4c2d2 | c4F4
F2F2 | G4G4c3B | A8
F2A2 | c4c4d2c2 | A4F2
F2F2A2 | c4c4d2c2 | A4F4
F2A2 | c4A4f2d2 | c4A2
c2d2c2 | B4G4c2c2 | A8

